COLOR/action 16/16/pack-more.svg

<svg height="16" width="16" xmlns="http://www.w3.org/2000/svg"><g fill="#c43ac4"><path d="m1 1v4h4v-4zm5 0v4h4v-4zm5 0v4h4v-4zm-10 5v4h4v-4zm5 0v4h4v-4zm5 0v4h4v-4zm-10 5v4h4v-4zm5 0v4h4v-4zm5 0v4h4v-4z"/><path d="m1 1v.5h4v-.5zm5 0v.5h4v-.5zm5 0v.5h4v-.5zm-10 5v.5h4v-.5zm5 0v.5h4v-.5zm5 0v.5h4v-.5zm-10 5v.5h4v-.5zm5 0v.5h4v-.5zm5 0v.5h4v-.5z" fill="#fff" opacity=".3"/><path d="m1 4.5v.5h4v-.5zm5 0v.5h4v-.5zm5 0v.5h4v-.5zm-10 5v.5h4v-.5zm5 0v.5h4v-.5zm5 0v.5h4v-.5zm-10 5v.5h4v-.5zm5 0v.5h4v-.5zm5 0v.5h4v-.5z" fill="#000" opacity=".2"/></g></svg>

<?xml version="1.0" encoding="UTF-8" standalone="no"?>
<svg
   xmlns:dc="http://purl.org/dc/elements/1.1/"
   xmlns:cc="http://creativecommons.org/ns#"
   xmlns:rdf="http://www.w3.org/1999/02/22-rdf-syntax-ns#"
   xmlns:svg="http://www.w3.org/2000/svg"
   xmlns="http://www.w3.org/2000/svg"
   xmlns:sodipodi="http://sodipodi.sourceforge.net/DTD/sodipodi-0.dtd"
   xmlns:inkscape="http://www.inkscape.org/namespaces/inkscape"
   height="16"
   width="16"
   version="1.1"
   id="svg22"
   sodipodi:docname="pack-more.svg"
   inkscape:version="0.92.4 (5da689c313, 2019-01-14)">
  <metadata
     id="metadata28">
    <rdf:RDF>
      <cc:Work
         rdf:about="">
        <dc:format>image/svg+xml</dc:format>
        <dc:type
           rdf:resource="http://purl.org/dc/dcmitype/StillImage" />
      </cc:Work>
    </rdf:RDF>
  </metadata>
  <defs
     id="defs26" />
  <sodipodi:namedview
     pagecolor="#ffffff"
     bordercolor="#666666"
     borderopacity="1"
     objecttolerance="10"
     gridtolerance="10"
     guidetolerance="10"
     inkscape:pageopacity="0"
     inkscape:pageshadow="2"
     inkscape:window-width="794"
     inkscape:window-height="480"
     id="namedview24"
     showgrid="false"
     inkscape:zoom="14.75"
     inkscape:cx="8"
     inkscape:cy="8"
     inkscape:window-x="0"
     inkscape:window-y="27"
     inkscape:window-maximized="0"
     inkscape:current-layer="g20" />
  <g
     fill="#c43ac4"
     id="g20">
    <path
       d="M 1 1 L 1 5 L 5 5 L 5 1 L 1 1 z M 6 1 L 6 5 L 10 5 L 10 1 L 6 1 z M 11 1 L 11 5 L 15 5 L 15 1 L 11 1 z M 1 6 L 1 10 L 5 10 L 5 6 L 1 6 z M 6 6 L 6 10 L 10 10 L 10 6 L 6 6 z M 11 6 L 11 10 L 15 10 L 15 6 L 11 6 z M 1 11 L 1 15 L 5 15 L 5 11 L 1 11 z M 6 11 L 6 15 L 10 15 L 10 11 L 6 11 z M 11 11 L 11 15 L 15 15 L 15 11 L 11 11 z "
       id="path2" />
    <path
       d="M 1 1 L 1 1.5 L 5 1.5 L 5 1 L 1 1 z M 6 1 L 6 1.5 L 10 1.5 L 10 1 L 6 1 z M 11 1 L 11 1.5 L 15 1.5 L 15 1 L 11 1 z M 1 6 L 1 6.5 L 5 6.5 L 5 6 L 1 6 z M 6 6 L 6 6.5 L 10 6.5 L 10 6 L 6 6 z M 11 6 L 11 6.5 L 15 6.5 L 15 6 L 11 6 z M 1 11 L 1 11.5 L 5 11.5 L 5 11 L 1 11 z M 6 11 L 6 11.5 L 10 11.5 L 10 11 L 6 11 z M 11 11 L 11 11.5 L 15 11.5 L 15 11 L 11 11 z "
       id="path836"
       style="fill:#ffffff;fill-opacity:1;opacity:0.3" />
    <path
       style="opacity:0.2;fill:#000000;fill-opacity:1"
       id="path841"
       d="M 1,4.5 V 5 H 5 V 4.5 Z m 5,0 V 5 h 4 V 4.5 Z m 5,0 V 5 h 4 V 4.5 Z M 1,9.5 V 10 H 5 V 9.5 Z m 5,0 V 10 h 4 V 9.5 Z m 5,0 V 10 h 4 V 9.5 Z m -10,5 V 15 h 4 v -0.5 z m 5,0 V 15 h 4 v -0.5 z m 5,0 V 15 h 4 v -0.5 z"
       inkscape:connector-curvature="0" />
  </g>
</svg>
